X: 10360
T: Don't Wake Me
R: hornpipe
M: 4/4
K: Dmajor
|:A>G|"D"F>D F>G A2 FG|Ad d>e "G"d>c AG|"D"F2 F>F F2 DE|"C"GF E>E "A"E2 AG|
"D"FDFG A2 FG|Ad d>e "G"d3/2c/ AG|"D"F2 FD "A"GE C>E|"G"D2 DD "D"D2:|
|:A2|"D"dAde f2 f/a/g/f/|"A"e>d c>e "G"de/d/ "A"c<A|"D"dAde fe"A"ce|"G"d2 d3/2d/ "D"d2 de|
"A"fece "Bm"d>c AG|"Gmaj7"F2 FD "Em7"GE "A7"C>E|"Bm"DEFA "Em7"dcAG|"A7sus4"E2 D>D "D"D2:|

